X:0
T:The Hexatonic Scales based on A
L:1/4
M:9/4
K:A
"^Lydian/Major Hexatonic"       A2 Bc efg a2|a2 gf ecB A2||
M:9/4
K:A
"^Major/Mixolydian Hexatonic"   A2 Bc def a2|a2 fe dcB A2||
M:9/4
K:ADor
"^Mixolydian/Dorian Hexatonic"  A2 Bd efg a2|a2 gf edB A2||
M:9/4
K:AMin
"^Dorian/Minor Hexatonic"       A2 Bc deg a2|a2 ge dcB A2||
M:9/4
K:AMin
"^Minor/Phrygian Hexatonic"     A2 cd efg a2|a2 gf edc A2|]
